X:1
T:Rags, Bottles and Old Iron.
T:Rags, Bottles and Old Iron.
T:Medley for Piano.
T:by LOUIS TOCABEN.
T:Copyright, 1901, by Howley, Haviland &amp; Dresser.
T:Copyright, 1901, by Howley, Haviland &amp; Dresser.
T:Copyright, 1901, by Howley, Haviland &amp; Dresser.
T:Copyright, 1901, by Howley, Haviland &amp; Dresser.
T:Copyright, 1901, by Howley, Haviland &amp; Dresser.
T:Copyright, 1901, by Howley, Haviland &amp; Dresser.
C:by LOUIS TOCABEN.
Z:Copyright, 1901, by Howley, Haviland & Dresser.
%%score { ( 1 3 ) | ( 2 4 ) }
L:1/8
Q:1/4=90
M:2/4
K:G
V:1 treble nm="Piano" snm="Pno."
V:3 treble 
V:2 bass 
V:4 bass 
V:1
"^Moderato."!f! B | %1
"^(I certainly is the biggest fool nig in dis town.)" [Bdg][Bdg] [dgd']/[dgd']/[dgd']/[dgd']/ | %2
 [Bdg][Bdg] [dgd']2 | [Bdg][Bdg]!<(! [d^gd']/[dgd']/[dgd']/[dgd']/ | %4
"^Crated and Baled for Two Mandolins Guitar and Piano""^Arranged for Piano by F.W. MEACHAM." [dfa][dfa]!<)! [dfc'd']2 | %5
!ff! g'/e'g'/ d'b | g/a/b/g/ a/g/e/g/ | d/d'b/!<(! a/^g/a/b/ | [B=g]!<)! z !>![GBdg] z | %9
!p! z [B,DG]z[B,DG] | z [B,DG]z[B,DG] ||!mf! GG d/d/d/d/ | G>G d2 | G/GG/!<(! d/d/d/d/ | %14
 A>A!<)! d2 | A/AA/ d/d/d/d/ | A>A d2 | [cf]/[cf]/[cf]/[cf]/ [ce][cd] | %18
!<(! ed!<)! !>![Fce]!>![Fcd] |!mf! GG d/d/d/d/ | G>G d2 | G/GG/!<(! d/d/d/d/ | A>A!<)! d2 | %23
 A/A"_cresc."A/ d/d/d/d/ | A>A [A^df]f/f/ | [^G=df]/f/e/e/!<(! [A^cf][Gce] | %26
 [Fd]2!<)!!<(! !fermata![G^ce]!fermata![A=cdf]!<)! ||!f!"^a tempo" [GBdg][Bdf]/g/- g/e/d/B/ | %28
 AA dd | G/BG/ A/G/E/G/ | D [Bdb][Ada][Gdg] |!<(! !>!d'4-!<)! | d'ddd | e>d e/d/e/d/ | %34
 [^Fce][Fcd] [Fce][Fcd] | [GBdg]/[Gg][Gg]/ [GBdg]/[Gg]/[Gg]/[Gg]/ | [GBg]>[Gg] [GBg]d/d/ | %37
 [GBdg]/[Gg][Gg]/ [Gcg]/[Gg]/[Gg]/[Gg]/ | [G^cg]>[Gg] [Gcg][Gg]/[Gg]/ | [G=Bdg][Bdf]/g/- g/e/d/B/ | %40
 AA dd | [B,DG][GBdg] [GBdg][Gg]/[Gg]/ | [G_B^cg]>[GBcg] [GBcg]g/g/ | [G=Bdg][Bdf]/g/- g/e/d/B/ | %44
 AA [Fd]d | [B,G]/ED/ E/D/E/D/ | [B,G] !fermata!z || %47
[K:C][M:4/4][Q:1/4=180]"^Moderato espressivo."!mp! (cd) | %48
 egeg _e"^(My Little Southern Queen.)"ecd | =egeg _eecd |{/g} ([G=e]2 c2) (c2 A2) | %51
 z2 [fa]2 [fg] z (de) | fefd BBcd | e^dec AAe_e | dede d^c=cA | d4- d z (cd) | egeg _eecd | %57
 =egeg _eeee | =e^c_BA ^GABA | d4- d z AB | cBcB c2 c=d | e^ded e3 e | %62
 [^F=cd]e!<(!^fg [cda]f!<)!ed |!>(! g4-!>)! g !fermata!z || %64
[M:3/4]!p![Q:1/4=180]"^Valse tempo" G2 |: c4"^I can't tell why I love you but I do." B2 | e4 c2 | %67
 f4 e2 | ^c4 A2 | (d6 | e6 | f6-) | f4 A2 | d4 ^c2 | e4 d2 | f4 d2 | B4 G2 | (c6 | d6 | e6-) | %80
 e4 G2 | c4 B2 | d4 c2 | e6 | ^c4 A2 | d4 A2 | e4 A2 | f6- | f4 A2 | d4 e2 | g4 f2 | e2 c4- | %92
 c2 d2 e2 | A6 | B6 |1 [Ec]2 (E2 F2 | ^F2 A2 G2) :|2 c6- | c2 z2 z2 || [EAc]6 | [E^Fc]4 [EFc]2 | %101
 [^D^FB]2 [DFB]2 [DFB]2 | [=D^Fc]4 z ||[K:G][M:4/4]!p![Q:1/4=170]"^Andante Moderato" D | %104
 BBAG B"^(Oh Answer Me.)"B!<(!AG | [DB]d!<)! f>e!>(! [GBd]3 d!>)! | %106
 [^Ge][Ge][Gc][GB] [^C=GB][GA][GA][CGB] |x[=cf][ce][c_e] [cd]2 z D | BBAG BB!<(!AG | %109
 [DB]d f>!<)!e [GBd]3 d | [^Gd][Gd][Gc][GB] EB B>!>(!A | G4-!>)! G2 z!mf! B | %112
 [GB][GBe][GBe]>f [GAe] [GA^d]2 [ABe] | [ABf][AB][Ac][AB] [GBe]3 =d | ^c^Bcd!<(! [Gce]A =B>A!<)! | %115
 A4- A2 z!p! D | BBAG BBAG | [DB]d f>e [GBd]3 d | [^Ge][Ge][Gc][GB] [^C=GB][GA][GA][CGB] | %119
!>(! [FAd]4-!>)! [FAd][DGd][E^ce][F=cf] |: %120
[M:2/4][Q:1/4=90]"^Allegro."!mf!!ff! [GBg][GBe]"^(My Charcoal Charmer.)" [GBg]2 | %121
 z [B^gb][ege'][dgd'] | !>![Ee]4- | [Ee][Ece] [Fcf][Gcg] | [Aca][Af] [Aca]2 | %125
 z [dbd'][ec'e'][_ec'_e'] | [dbd']2- [dbd']/[ee']/[dd']/[Bb]/ | %127
 [dd'] !fermata![Dd]!fermata![Ee]!fermata![Ff] | [GBg][GBe] [GBg]2 | z [B^gb][ege'][dgd'] | %130
 [Ee]4- | [Ee][Ece] [^Dc^d][Ece] | !>![d=fbd']!>![ceac'] !>![de^g]!>![cea] | [B^c=gb]2 [A=cfa]2 |1 %134
!<(! [GBg]e/d/- d/e/d/G/ | F!<)!!ff!!fermata![Dd] !fermata![Ee]!fermata![Ff] :|2 %136
 [GBg]!<(!e/d/- d/e/d/e/ | G!<)! z !>![GBdg] z || %138
[M:6/8]!f![Q:1/4=170]"^Marcia." !>!GzG/G/!<(! GFG | AzF D!<)! z z | !>![A,^CG]zG/G/ !>![A,=CG]AG | %141
 !>![A,CF] z z !>![DFcd] z z |:!f!!ff!"^(Sousa Girl.)" [GBd]3 [GBe]3 | [GBf]3 [GBg]3 | %144
 [Bf]ge [Bf]2 f | z .[gb].[gb] .[gb].[fb].[eb] | [db]3 [eb]3 | [fb]3 [gb]3 | c' z z [fc']2 ([fc'] | %149
 z) .[ac'].[ac'] .[ac'].[gc'].[fc'] | ([Fc]de) [Fcf]2 c | [Fcf]2 c [Fcf]3 | ([GB]cd) [GBe]2 B | %153
 [GBe]2 B [GBe]2 [GB] | !>![FA]3 !>![DAd]3 |!<(! !>![E^Gde]3 !>![A^c=ga]3!<)! | %156
 !>![A=cfa]2 f!>(! ([ce]ae) | ([c_e]ae) [cd]2!>)! z |!f! [GBd]3 [GBe]3 | [GBf]3 [GBg]3 | %160
 [Bf]ge [Bf]2 f | !>!B6 | [^DB]3 [E^c]3 | [F^d]3 [Af]3 | [Af][Bg][Af]!<(! [Bg]2 [A^d] | %165
 [Ge]3-!<)! [Ge]2 e |!ff! !>![Aea]3"_cresc." !>![Geg]3 | !>![F^Af]3 !>![EAe]3 | %168
!<(! [EBe]2 [Dd] [^C^c]2 [Dd]!<)! | !>![_EG_B_e]2 [GBe] [GBe][GBe][GBe] | !>![G=Bd]3 !>![G_B^cg]3 | %171
 !>!a3- a2 d |1!ff! [Bdg]2 (D E2 F) |!<(! (GAB cde)!<)! :|2 [Bdg]zg/g/!<(! gdg!<)! || %175
 !>![A^cga]2 z !>![dfad']2 z | [GBdg]zg/g/ gdg | !>![A^cga]2 z !>![dfad']2 z | [GBdg]2 d (edB) | %179
 G2 D (EDB,) | G,2 z !>![GBdg]2 z | !>![GBdg]2 z !>![GBdg]2 z | (([B,DG]6 | !>![GBdg])) z z z2 x |] %184
V:2
 z | G,[B,D] D,[B,D] | G,[B,D] D,[B,D] | G,,[D,G,B,] ^G,,[D,=F,B,] | A,,[D,^F,C] D,,[D,F,C] | %5
[K:treble] g/eg/ dB | G/A/B/G/ A/G/E/G/ | D[GB][K:bass] [A,EG][DF] | [G,DG] z !>![G,,G,] z | %9
 G,, z D,, z | G,, z D,, z || G,,[D,G,B,] D,,[D,G,B,] | G,,[D,G,B,] D,,[D,G,B,] | %13
 G,,[D,G,B,] ^G,,[D,=F,B,] | A,,[D,^F,C] D,,[D,F,C] | A,,[D,F,C] D,,[D,F,C] | %16
 A,,[D,F,C] D,,[D,F,C] | A,,[D,F,C] D,,[D,F,C] | G,,[D,G,B,] !>!A,,!>!D,, | %19
 G,,[D,G,B,] D,,[D,G,B,] | G,,[D,G,B,] D,,[D,G,B,] | G,,[D,G,B,] ^G,,[D,=F,B,] | %22
 A,,[^F,A,D] [F,A,D]A,, | D,[F,A,D] A,,[F,A,D] | D,[F,A,D] B,,[A,B,^D] | E,[^G,B,=D] A,,[A,^C] | %26
 [D,A,D]2 !fermata![A,,A,]!fermata![D,,D,] || [G,,G,][G,B,D] D,[G,B,D] | A,,[G,A,^C] D,[F,A,=C] | %29
 G,/B,G,/ A,/G,/E,/G,/ | D, z z2 | A,,[D,F,C] D,,[D,F,C] | F,,[D,A,][D,B,][D,C] | %33
 G,,[D,G,B,] ^G,,[D,=F,B,] | A,,[D,^F,C] D,,[D,F,C] | G,,[D,G,B,] !>!G,[B,D] | %36
 !>!=F,[G,B,D] !>!F,[G,B,D] | !>!E,[G,C] !>!E,[G,C] | !>!_E,[G,_B,^C] !>!E,[G,B,C] | %39
 D,[G,B,D] D,[G,B,D] | E,[G,A,^C] D,[F,A,=C] | [G,,G,]2- [G,,G,] z | [_E,,_E,]2- [E,,E,] z | %43
 [G,,G,][G,B,D] D,[G,B,D] | E,[G,A,^C] D,[F,A,=C] | [G,,G,]/E,D,/ E,/D,/E,/D,/ | %46
 [G,,G,] !fermata!z ||[K:C][M:4/4] z2 | [C,,C,]2 [G,CE]2 [^F,C_E]2 z2 | %49
 [C,,C,]2 [G,CE]2 [^F,C_E]2 z2 | [C,,C,]2 [G,C=E]2 [E,,E,]2 [_E,,_E,]2 | %51
 [D,,D,]2 [G,DF]2 [G,DF] z z2 | D,2 [G,B,F]2 G,,2 [G,B,F]2 | C,2 [G,CE]2 A,,2 [A,CG]2 | %54
 D,2 [CD^F]2 D,,2 [D,^F,C]2 | z2 ([G,C]2 [G,B,]) z z2 | [C,,C,]2 [G,CE]2 [^F,C_E]2 z2 | %57
 [C,,C,]2 [G,CE]2 [^F,C_E]2 z2 | A,,2 [G,A,^C=E]2 A,,2 [G,A,C]2 | z2 (A,2 D) z z2 | %60
 F,2 F,2 ^F,2 z2 | G,2 ^G,2 A,2 z2 | [D,,D,]2 [^F,A,=CD]2 [D,,D,]2 [F,A,CD]2 | %63
 [G,,G,]2 [G,E]2 [G,=F] !fermata!z ||[M:3/4] z2 |: C,2 [G,CE]2 [G,CE]2 | E,2 [G,CE]2 [G,CE]2 | %67
 A,,2 [A,^CG]2 [A,CG]2 | A,,2 [A,EG]2 [A,EG]2 | [D,D]6 | [A,,A,]6 | [D,,D,]2 ^G,2 A,2 | F4 A,2 | %73
 D,2 [A,DF]2 [A,DF]2 | F,,2 [F,A,D]2 [F,A,D]2 | G,,2 [G,B,F]2 [G,B,F]2 | G,,2 [G,DF]2 [G,DF]2 | %77
 [C,C]6 | [G,,G,]6 | [C,,C,]2 ^F,2 G,2 | E4 G,2 | C,2 [G,CE]2 [G,CE]2 | E,2 [G,CE]2 [G,CE]2 | %83
 A,,2 [A,^CG]2 [A,CG]2 | A,,2 [A,EG]2 [A,EG]2 | x2 [A,D]2 [A,D]2 | ^C,2 [G,A,E]2 [G,A,E]2 | %87
 D,2 ^G,2 A,2 | F4 z2 | x2 [A,D]2 [A,D]2 | D,2 [_A,CF]2 [A,CF]2 | x2 [CE]2 [CE]2 | x2 [CE]2 [CE]2 | %93
 D,6 | G,6 |1 [C,G,]2 (E,2 F,2 | ^F,2 A,2 G,2) :|2 G,2 B,2 A,2 | G,2 z2 z2 || [A,,A,]6 | %100
 [A,,A,]4 [A,,A,]2 | [B,,B,]2 [B,,B,]2 [B,,B,]2 | [A,,A,]2 [D,,D,]2 z ||[K:G][M:4/4] z | %104
 D,2 _E,2 D,2 E,2 | [G,,D,]2 [^C,^A,]2(xB,D) z |xB,ED A,,A,^CA, | D,DE=F ^F2 D, z | %108
 D,2 _E,2 D,2 E,2 | [G,,D,]2 [^C,^A,]2(xB,D) z |xB,ED [A,,A,] z [D,,D,]2 | z D,E,_E, D,2 z2 | %112
xB,EB, B,,B,[A,^D]B, | B,,B,[A,^D]B, E,B,[G,E] z | A,,A,^CA, A,,A,CA, | z2 G,2 =F,2 D,, z | %116
 D,2 _E,2 D,2 E,2 | [G,,D,]2 [^C,^A,]2(xB,D) z |xB,ED A,,A,^CA, | z2 A,2 D x3 |: %120
[M:2/4] [G,,G,][D,G,B,] G,,[D,G,B,] | E,,[E,^G,D] B,,[E,G,D] | [C,C]2 [B,,B,]2 | %123
 [A,,A,][E,A,C] A,,[E,A,C] | D,[F,A,C] A,,[D,F,C] | [D,,D,][D,F,C] [D,,D,][D,F,C] | %126
 G,,[D,G,B,] ^G,,[D,=F,B,] | [A,,D,^F,C] !fermata!D,!fermata![C,C]!fermata![A,,A,] | %128
"^a tempo" [G,,G,][D,G,B,] G,,[D,G,B,] | E,,[E,^G,D] B,,[E,G,D] | [C,C]2 [B,,B,]2 | %131
 [A,,A,][E,A,C] A,,[E,A,C] | !>![^G,,^G,]!>![A,,A,] !>![B,,B,]!>![C,C] | %133
 [A,,A,][=G,A,^C] [D,,D,][D,F,A,=C] |1 [G,,G,][G,B,D] [B,,B,][_B,,_B,] | %135
 [G,,G,]!fermata!D, !fermata![C,C]!fermata![A,,A,] :|2 [G,,G,][D,G,B,] [D,,D,][D,F,C] | %137
 [G,B,] z !>![G,,G,] z ||[M:6/8] !>!G,zG,/G,/ G,F,G, | A,zF, D, z z | %140
 !>![E,,E,] z z !>![_E,,_E,] z z | !>![D,,D,] z z !>![D,,D,] z z |: G,2 [B,D] D,2 [B,D] | %143
 G,2 [B,D] D,2 [B,D] | G,2 [B,D] D,2 [B,D] | G,2 [B,D] D,2 [B,D] | G,2 [B,D] D,2 [B,D] | %147
 G,,2 [D,G,B,] D,,2 [D,G,B,] | G,,2 [D,F,C] D,,2 [D,F,C] | G,,2 [D,F,C] D,,2 [D,F,C] | %150
 G,,2 [D,F,C] D,,2 [D,F,C] | G,,2 [D,F,C] D,,2 [D,F,C] | G,,2 [D,G,B,] D,,2 [D,G,B,] | %153
 G,,2 [D,G,B,] [D,G,B,]2 z |"^cresc. molto" (A,,D,E, F,G,A,) | !>![B,,B,]3 !>![A,,A,]3 | %156
 !>![D,,D,]2 z[K:treble] [DA]3 | [DG]3 [DF]3 |[K:bass] G,2 [B,D] D,2 [B,D] | G,2 [B,D] D,2 [B,D] | %160
 G,,2 [D,G,B,] D,,2 [D,G,B,] | G,,2 [D,G,B,] [D,G,B,]2 z | B,,2 [F,B,] B,,2 [F,^A,] | %163
 B,,2 [F,=A,] B,,2 [A,B,^D] | [B,,,B,,]2 [A,B,^D] [A,B,D]2 z | [E,,E,]2 [G,B,E] [G,B,E]2 z | %166
 [C,,C,]2 [C,E,A,] [C,E,A,]2 [C,E,A,] | [^C,,^C,]2 [C,G,^A,] [C,G,A,]2 [C,G,A,] | %168
 [D,,D,]2 [D,G,B,] [D,G,B,]2 [D,G,B,] | [^C,,^C,]2 ^C CCC | D^CD _EDE | (=E3 D2) z |1 %172
 [G,,G,]2 (D, E,2 F,) | (G,A,B, CDE) :|2 [G,,G,] z z z2 z || !>![E,,E,]2 z !>![D,,D,]2 z | %176
 [G,,G,] z z z2 z | !>![_E,,_E,]2 z !>![D,,D,]2 z | [G,,G,]2 D (EDB,) | G,2 D, (E,D,B,,) | %180
 G,,2 z !>![G,,G,]2 z | !>![D,,D,]2 z !>![B,,,B,,]2 z | (!///-!G,,,3 G,,3) | [G,,G,] z z z2 x |] %184
V:3
 x | x4 | x4 | x4 | x4 | x4 | x4 | x2 ^c=c | x4 | x4 | x4 || x4 | x4 | x4 | x4 | x4 | x4 | x4 | %18
 [GB]2 x2 | x4 | x4 | x4 | x4 | x4 | x4 | x4 | x4 || x4 | x4 | x4 | x4 | z/ [cd]e/ [cf]/d/e/f/ | %32
 [cd]FGA | z [GB] x2 | x4 | x4 | x4 | x4 | x4 | x4 | x4 | x4 | x4 | x4 | x4 | x4 | x2 || %47
[K:C][M:4/4] x2 | x8 | x8 | x4 G2 G2 | B4- B x3 | x8 | x8 | x8 | z2 [=FA]2 [FG] x3 | x8 | x8 | x8 | %59
 z2 [FA]2 [FA] x3 | [DA]2 [DA]2 [^DA]2 x2 | [EG]2 [EB]2 [E=Gc]3 z | x8 | z2 [G^A^c]2 [GBd] x || %64
[M:3/4] x2 |: x6 | x6 | x6 | x6 | z2 [FA]2 [FA]2 | z2 [GA^c]2 [GAc]2 | z2 [FAd]2 [FAd]2 | %72
 z2 [Ad]2 z2 | x6 | x6 | x6 | x6 | z2 [EG]2 [EG]2 | z2 [FGB]2 [FGB]2 | z2 [EGc]2 [EGc]2 | %80
 z2 [Gc]2 z2 | x6 | x6 | x6 | x6 | x6 | x6 | z2 [FA]2 [FA]2 | z2 [Ad]2 z2 | x6 | x6 | x6 | x6 | %93
 z2 [C^F]2 [CF]2 | z2 [D=F]2 [DF]2 |1 x6 | x6 :|2 E2 G2 F2 | E2 x4 || x6 | x6 | x6 | x5 || %103
[K:G][M:4/4] x | D2 C2 D2 C2 | x2 [G^A]2 x4 | x8 | A4- A2 x2 | D2 C2 D2 C2 | x2 [G^A]2 x4 | %110
 x4 ^C z [=CF]2 | z B,CA, B,2 x2 | x8 | x8 | [GA] z [GA] z z2 G2 | z2!>(! ([=CE]2 [CD])!>)! x3 | %116
 D2 C2 D2 C2 | x2 [G^A]2 x4 | x8 | x8 |:[M:2/4] x4 | x4 | z [Gc]z[^GB] | x4 | x4 | x4 | x4 | x4 | %128
 x4 | x4 | z [Gc]z[^GB] | x4 | x4 | x4 |1 x4 | x4 :|2 x4 | x4 ||[M:6/8] x6 | x6 | x6 | x6 |: x6 | %143
 x6 | x6 | !>!B6 | x6 | x6 | fge x3 | !>!c6 | x6 | x6 | x6 | x6 | x6 | x6 | x6 | x6 | x6 | x6 | %160
 x6 | z2!<(! (G F2 E)!<)! | x6 | x6 | x6 | x6 | x6 | x6 | x6 | x6 | x6 | ([A^cf]3 [=cdf]2) z |1 %172
 x6 | x6 :|2 x6 || x6 | x6 | x6 | x6 | x6 | x6 | x6 | x6 | x6 |] %184
V:4
 x | x4 | x4 | x4 | x4 |[K:treble] x4 | x4 | x2[K:bass] x2 | x4 | x4 | x4 || x4 | x4 | x4 | x4 | %15
 x4 | x4 | x4 | x4 | x4 | x4 | x4 | x4 | x4 | x4 | x4 | x4 || x4 | x4 | x4 | x4 | x4 | x4 | x4 | %34
 x4 | x2 G,2 | =F,2 F,2 | E,2 E,2 | _E,2 E,2 | D,2 x2 | x4 | x4 | x4 | x4 | x4 | x4 | x2 || %47
[K:C][M:4/4] x2 | x8 | x8 | x8 | x8 | x8 | x8 | x8 | G,,4- G,, x3 | x8 | x8 | x8 | D,4- D, x3 | %60
 x8 | x8 | x8 | x6 ||[M:3/4] x2 |: x6 | x6 | x6 | x6 | x6 | x6 | x6 | x6 | x6 | x6 | x6 | x6 | x6 | %78
 x6 | x6 | x6 | x6 | x6 | x6 | x6 | F,6 | x6 | x6 | x6 | F,6 | x6 | G,6 | A,6 | x6 | x6 |1 x6 | %96
 x6 :|2 C,6- | C,2 x4 || x6 | x6 | x6 | x5 ||[K:G][M:4/4] x | G,,4 G,,4 | x4 D,3 x | E,4 x4 | x8 | %108
 G,,4 G,,4 | x4 D,3 x | E,4 x4 | G,,4- G,,2 x2 | E,4 x4 | x8 | x8 | D,4- D,2 x2 | G,,4 G,,4 | %117
 x4 D,3 x | E,4 x4 | D,4- D,!fermata![B,,B,]!fermata![A,,A,]!fermata![D,,D,] |:[M:2/4] x4 | x4 | %122
 x4 | x4 | x4 | x4 | x4 | x4 | x4 | x4 | x4 | x4 | x4 | x4 |1 x4 | x4 :|2 x4 | x4 ||[M:6/8] x6 | %139
 x6 | x6 | x6 |: x6 | x6 | x6 | x6 | x6 | x6 | x6 | x6 | x6 | x6 | x6 | x6 | x6 | x6 | %156
 x3[K:treble] x3 | x6 |[K:bass] x6 | x6 | x6 | x6 | x6 | x6 | x6 | x6 | x6 | x6 | x6 | x6 | x6 | %171
 x6 |1 x6 | x6 :|2 x6 || x6 | x6 | x6 | x6 | x6 | x6 | x6 | x6 | x6 |] %184

